img/blockquote.svg

<svg width="34" height="28" fill="none" xmlns="http://www.w3.org/2000/svg"><path d="M.208 27.736c0-3.008.064-6.56.192-10.656.192-5.824 1.12-10.048 2.784-12.672C4.848 1.784 7.792.472 12.016.472l1.152 4.896c-2.304.064-3.872.832-4.704 2.304-.768 1.408-1.152 3.52-1.152 6.336h6.72v13.728H.208zm19.68 0c0-3.008.064-6.56.192-10.656.192-5.824 1.12-10.048 2.784-12.672C24.528 1.784 27.472.472 31.696.472l1.152 4.896c-2.304.064-3.872.832-4.704 2.304-.768 1.408-1.152 3.52-1.152 6.336h6.72v13.728H19.888z" fill="#F7654A"/></svg>

<svg width="34" height="28" viewBox="0 0 34 28" fill="none" xmlns="http://www.w3.org/2000/svg">
<path d="M0.208 27.736C0.208 24.728 0.272 21.176 0.4 17.08C0.592 11.256 1.52 7.032 3.184 4.408C4.848 1.784 7.792 0.471998 12.016 0.471998L13.168 5.368C10.864 5.432 9.296 6.2 8.464 7.672C7.696 9.08 7.312 11.192 7.312 14.008H14.032V27.736H0.208ZM19.888 27.736C19.888 24.728 19.952 21.176 20.08 17.08C20.272 11.256 21.2 7.032 22.864 4.408C24.528 1.784 27.472 0.471998 31.696 0.471998L32.848 5.368C30.544 5.432 28.976 6.2 28.144 7.672C27.376 9.08 26.992 11.192 26.992 14.008H33.712V27.736H19.888Z" fill="#F7654A"/>
</svg>
